X: 26599
T: Mick O'Connor's
R: reel
M: 4/4
K: Dmajor
DB,|:A,DDE F2ED|B,EED EFDB,|A,DDE FABc|dBAF EFDB,|
A,DDE F2ED|B,EED EFDB,|A,DDE FABc|1 dBAF EFDB,:|2 dBAF EF (3ABc||
d2fd adfd|edBA edBA|defa defd|e2de fddA|
d2fd adfd|edBA edBA|faab afdf|1 g2fd Beec:|2 (3eee fe dB AF||

